!!!!SEGMENT: pl-wtm--r-66-n--012_noskowski-zygmunt--piesni-ludowe-op-51-rozmowy.krn
!!!cenid: 18xx:2290
!!!COM: Noskowski, Zygmunt
!!!COM-rismid: pe106604
!!!CDT: 1846/05/02-1909/07/23
!!!CNT: Polish
!!!GTL: Pieśni ludowe op. 51
!!!OTL: Rozmowy
!!!PDT:
!!!AGN: Secular; Song
!!!SMS-siglum: PL-Wtm
!!!SMS-shelfmark: R 66/N
!!!SMS-shelfwork: 012 G
!!!SMS-variant:
!!!SMS-altvar:
!!!NIFC-rismid: 1001096741
!!!URL-scan: http://repozytorium.nifc.pl/skany/pl-wtm-nut--r66n
!!!ONB-nifc: UWAGA: na podstawie partytur z folderu pl-wtm-r66n
**kern	**text	**text	**text	**text	**text	**dynam	**kern	**text	**text	**text	**text	**text	**dynam
*part2	*part2	*part2	*part2	*part2	*part2	*part2	*part1	*part1	*part1	*part1	*part1	*part1	*part1
*staff2	*staff2	*staff2	*staff2	*staff2	*staff2	*	*staff1	*staff1	*staff1	*staff1	*staff1	*staff1	*
*Ibass	*	*	*	*	*	*	*Itenor	*	*	*	*	*	*
*I"[Basy]	*	*	*	*	*	*	*I"[Tenory]	*	*	*	*	*	*
*clefF4	*	*	*	*	*	*	*clefG2	*	*	*	*	*	*
*	*	*	*	*	*	*	*ITrd7c12	*	*	*	*	*	*
*k[b-e-]	*	*	*	*	*	*	*k[b-e-]	*	*	*	*	*	*
*B-:	*	*	*	*	*	*	*B-:	*	*	*	*	*	*
*M3/4	*	*	*	*	*	*	*M3/4	*	*	*	*	*	*
=1	=1	=1	=1	=1	=1	=1	=1	=1	=1	=1	=1	=1	=1
*^	*	*	*	*	*	*	*	*	*	*	*	*	*
!	!	!	!	!	!	!	!	!LO:TX:a:t=Allegro moderato	!	!	!	!	!	!
2.F^^/	2.BB-\	Ej!	.	.	.	.	mf	2.r	.	.	.	.	.	.
=2	=2	=2	=2	=2	=2	=2	=2	=2	=2	=2	=2	=2	=2	=2
2F/	2BB-\	dy-	.	.	.	.	.	2.r	.	.	.	.	.	.
4F/	4BB-\	-lu,	.	.	.	.	.	.	.	.	.	.	.	.
=3	=3	=3	=3	=3	=3	=3	=3	=3	=3	=3	=3	=3	=3	=3
*	*	*	*	*	*	*	*	*^	*	*	*	*	*	*
!	!	!	!	!	!	!	!LO:DY:b	!	!	!	!	!	!	!	!
!	!	!	!	!	!	!	!	!	!	!	!	!	!	!	!LO:DY:b
2F^^/	2BB-\	dy-	.	.	.	.	p	8f/	8d\	1. Je-	2. Do	3. Mo-	4. Prze-	5. Za	mf
.	.	.	.	.	.	.	.	8g/	8e-\	-dzie	mnie	-ja	-proś-	sto-	.
.	.	.	.	.	.	.	.	4f/	4d\	Ja-	za-	mat-	-że	-do-	.
4F/	4BB-\	-lu	.	.	.	.	.	(8e-/L	(8c\L	-sio	-jedź	-ka	mnie	-łą,	.
.	.	.	.	.	.	.	.	8d/J)	8B-\J)	.	.	.	.	.	.
=4	=4	=4	=4	=4	=4	=4	=4	=4	=4	=4	=4	=4	=4	=4	=4
4F^^/	4BB-\	ej,	.	.	.	.	.	8c/	8A\	od	Ja-	mi	Ja-	za	.
.	.	.	.	.	.	.	.	8g/	8e-\	To-	-siu-	ka-	-siu,	Ja-	.
4A/	4BB-\	dy-	.	.	.	.	.	4f/	4c\	-ru-	-leń-	-za-	prze-	-cko-	.
!	!	!	!	!	!	!	!	!LO:TUP:problem:klamra łukowa u dołu, numer u góry	!	!	!	!	!	!	!
4F/	4BB-\	-lu,	.	.	.	.	.	12e-/L	4A\	-nia,	-ku,	-ła,	-proś	-wą,	.
.	.	.	.	.	.	.	.	12d/	.	.	.	.	.	.	.
.	.	.	.	.	.	.	.	12c/J	.	.	.	.	.	.	.
=5	=5	=5	=5	=5	=5	=5	=5	=5	=5	=5	=5	=5	=5	=5	=5
4D^^/	4BB-\	ej,	.	.	.	.	.	8B-/	8F\	Czarn-	Do-	Że-	A-	Ja-	.
.	.	.	.	.	.	.	.	8B-/	8F\	-ny	-bre	-bym	-boś-	-siek	.
4En/	4BB-\	dy-	.	.	.	.	.	4c/	4G\	wą-	piw-	chłop-	-ci	be-	.
!	!	!	!	!	!	!	!	!LO:TUP:problem:klamra łukowa u dołu, numer u góry	!	!	!	!	!	!	!
4E-X/	4BB-\	-lu,	.	.	.	.	.	12B-/L	4F\	-sik	-ko	-ców	ty	-czy,	.
.	.	.	.	.	.	.	.	12A/	.	.	.	.	.	.	.
.	.	.	.	.	.	.	.	12G/J	.	.	.	.	.	.	.
!!LO:LB:g=original
=6	=6	=6	=6	=6	=6	=6	=6	=6	=6	=6	=6	=6	=6	=6	=6
!	!	!	!	!	!	!	!	!LO:TUP:problem:brak klamry, numer u góry	!LO:TUP:problem:brak klamry, numer u dołu	!	!	!	!	!	!
4E-/	4BB-\	ej,	.	.	.	.	.	(12F/L	6F\	ma,	mam,	nie	mnie	tłu-	.
.	.	.	.	.	.	.	.	12G/J)	.	.	.	.	.	.	.
.	.	.	.	.	.	.	.	12A/	12F\	da	da	ko-	roz-	-cze	.
4D/	4BB-\	dy-	.	.	.	.	.	4.B-/	4.F\	i	i	-cha-	-gnie-	gło-	.
4F/	4AA\	-lu,	.	.	.	.	.	.	.	.	.	.	.	.	.
.	.	.	.	.	.	.	.	8c/	8F\	ma,	mam,	-ła,	-wał,	-wą.	.
=7	=7	=7	=7	=7	=7	=7	=7	=7	=7	=7	=7	=7	=7	=7	=7
4F/	4AA-X\	ej,	.	.	.	.	.	8d/	8B-\	Mo-	U-	A	Bo	Cze-	.
.	.	.	.	.	.	.	.	8d/	8B-\	-ja	-czę-	ja	jeź-	-go	.
4G/	4GG\	dy-	.	.	.	.	.	4.e-/	4.B\	mat-	-stu-	chłop-	-li	ry-	.
4F/	4GG\	-lu,	.	.	.	.	.	.	.	.	.	.	.	.	.
.	.	.	.	.	.	.	.	8d/	8B\	-ko,	-ję,	-ca	mnie	-czysz?	.
=8	=8	=8	=8	=8	=8	=8	=8	=8	=8	=8	=8	=8	=8	=8	=8
4En/	4C\	ej,	.	.	.	.	.	8c/	8B-X\	ma-	u-	cap	nie	Bar-	.
.	.	.	.	.	.	.	.	8g/	8B-\	-tu-	-trak-	za	prze-	-tek	.
4F/	4F\	dy-	.	.	.	.	.	4f/	4A\	-leń-	-tu-	szy-	-pro-	py-	.
!	!	!	!	!	!	!	!	!LO:TUP:problem:klamra łukowa u dołu, numer u góry	!	!	!	!	!	!	!
4F/	4FF\	-lu,	.	.	.	.	.	12e-/L	4A\	-ko,	-ję,	-ję,	-sisz	-ta,	.
.	.	.	.	.	.	.	.	12d/	.	.	.	.	.	.	.
.	.	.	.	.	.	.	.	12c/J	.	.	.	.	.	.	.
=9	=9	=9	=9	=9	=9	=9	=9	=9	=9	=9	=9	=9	=9	=9	=9
4D/	4GG\	dy-	.	.	.	.	.	8B-/	8G\	Ten	Wszy-	Ko-	Oj	Czy	.
.	.	.	.	.	.	.	.	8B-/	8G\	mi	-stkoć	-chać	to	po-	.
4E-X/	4C\	-lu,	.	.	.	.	.	4c/	4G\	się	od-	bę-	ty	-mar-	.
!	!	!	!	!	!	!	!	!LO:TUP:problem:klamra łukowa u dołu, numer u góry	!	!	!	!	!	!	!
4r	4ryy	.	.	.	.	.	.	12B-/L	4r	u-	-dam,	-dę,	mnie	-ła	.
.	.	.	.	.	.	.	.	12A/	.	.	.	.	.	.	.
.	.	.	.	.	.	.	.	12G/J	.	.	.	.	.	.	.
=10	=10	=10	=10	=10	=10	=10	=10	=10	=10	=10	=10	=10	=10	=10	=10
!	!	!	!	!	!	!	!	!LO:TUP:problem:brak klamry, numer u góry	!LO:TUP:problem:brak klamry, numer u dołu	!	!	!	!	!	!
4E-/	4C\	ej,	.	.	.	.	.	(12F/L	6E-\	-da	da	pó-	nie	ci	.
.	.	.	.	.	.	.	.	12G/J)	.	.	.	.	.	.	.
.	.	.	.	.	.	.	.	12A/	12E-\	ten	i	-ki	bę-	ko-	.
4D/	4BB-\	dy-	.	.	.	.	.	4B-/	4F\	u-	od-	ży-	-dziesz	-bie-	.
[4D/	[4BB-\	-lu	.	.	.	.	.	[4B-/	[4F\	-da.	-dam.	-ję.	miał	-ta?	.
!!LO:PB:g=original
=11	=11	=11	=11	=11	=11	=11	=11	=11	=11	=11	=11	=11	=11	=11	=11
2.D/]	2.BB-\]	.	.	.	.	.	.	2.B-/]	2.F\]	.	.	.	.	.	.
=12	=12	=12	=12	=12	=12	=12	=12	=12	=12	=12	=12	=12	=12	=12	=12
!	!	!	!	!	!	!	!LO:DY:a	!	!	!	!	!	!	!	!
2.B-/	2.r	.	.	.	.	.	p	2.f/	2.d\	Ej,	.	.	.	.	p
=13	=13	=13	=13	=13	=13	=13	=13	=13	=13	=13	=13	=13	=13	=13	=13
2B-/	2.r	.	.	.	.	.	.	2f/	2d\	dy-	.	.	.	.	.
4B-/	.	.	.	.	.	.	.	4f/	4d\	-lu,	.	.	.	.	.
=14	=14	=14	=14	=14	=14	=14	=14	=14	=14	=14	=14	=14	=14	=14	=14
!	!	!	!	!	!	!	!LO:DY:b	!	!	!	!	!	!	!	!
4A/	8F\	1. We-	2. Ku-	3. Kie-	4. Co	5. Oj-	mf	4f/	4e-\	ej,	.	.	.	.	.
.	8G\	-so-	-ja-	-dym	ja	-że,	.	.	.	.	.	.	.	.	.
4B-/	4F\	-ły	-wiak	ja	po-	oj-	.	4f/	4d\	dy-	.	.	.	.	.
4B-/	(>8E-\L	ja	ci	był	-cznę	-że	.	4g/	4e-\	-lu	.	.	.	.	.
.	8D\J)	.	.	.	.	.	.	.	.	.	.	.	.	.	.
=15	=15	=15	=15	=15	=15	=15	=15	=15	=15	=15	=15	=15	=15	=15	=15
4A/	8C\	pa-	ja	pa-	z ta-	mi-	.	4f/	4e-\	ej,	.	.	.	.	.
.	8G\	-ro-	dziew-	-ro-	-ką	-ły	.	.	.	.	.	.	.	.	.
4A/	4F\	-be-	-czy-	-becz-	żo-	bra-	.	4f/	4c\	dy-	.	.	.	.	.
!	!LO:TUP:problem:klamra łukowa, numer u dołu	!	!	!	!	!	!	!	!	!	!	!	!	!	!
4F/	12E-\L	-czek,	-no,	-kiem,	-ną?	-cie,	.	4c/	4A\	-lu	.	.	.	.	.
.	12D\	.	.	.	.	.	.	.	.	.	.	.	.	.	.
.	12C\J	.	.	.	.	.	.	.	.	.	.	.	.	.	.
=16	=16	=16	=16	=16	=16	=16	=16	=16	=16	=16	=16	=16	=16	=16	=16
4F/	8BB-\	Za-	Z ku-	Cho-	Co	Po	.	4d/	4B-\	ej,	.	.	.	.	.
.	8BB-\	-le-	-jaw-	-dzi-	mi	próż-	.	.	.	.	.	.	.	.	.
4En/	4C\	-cam	-skiej	-łem	za	-ni-	.	4c/	4G\	dy-	.	.	.	.	.
!	!LO:TUP:problem:klamra łukowa, numer u dołu	!	!	!	!	!	!	!	!	!	!	!	!	!	!
4E/	12BB-\L	się	stro-	se	nią	-cy	.	4c/	4G\	-lu	.	.	.	.	.
.	12AA\	.	.	.	.	.	.	.	.	.	.	.	.	.	.
.	12GG\J	.	.	.	.	.	.	.	.	.	.	.	.	.	.
!!LO:LB:g=original
=17	=17	=17	=17	=17	=17	=17	=17	=17	=17	=17	=17	=17	=17	=17	=17
!	!LO:TUP:problem:brak klamry, numer u dołu	!	!	!	!	!	!	!	!	!	!	!	!	!	!
4E-X/	(>12FF\L	do	-ny	pod	pło-	się	.	4c/	4A\	ej,	.	.	.	.	.
.	12GG\J)	.	.	.	.	.	.	.	.	.	.	.	.	.	.
.	12AA\	dzie-	da	pió-	-ty	py-	.	.	.	.	.	.	.	.	.
4D/	4.BB-\	-we-	stro-	-recz-	ła-	-ta-	.	4B-/	4F\	dy-	.	.	.	.	.
4E-/	.	.	.	.	.	.	.	4A/	4F\	-lu,	.	.	.	.	.
.	8C\	-czek,	-ny,	-kiem,	-mią,	-cie,	.	.	.	.	.	.	.	.	.
=18	=18	=18	=18	=18	=18	=18	=18	=18	=18	=18	=18	=18	=18	=18	=18
4F/	8D\	Do	Py-	A	Cią-	Bab-	.	4B-/	4F\	ej	.	.	.	.	.
.	8D\	dzie-	-ta	te-	-gle	-sko	.	.	.	.	.	.	.	.	.
4G/	4.E-\	-we-	mnie	-raz	za	ży-	.	4B-/	4G\	dy-	.	.	.	.	.
4F/	.	.	.	.	.	.	.	4B-/	4B-\	-lu,	.	.	.	.	.
.	8D\	-czek	się	mnie	nią	-je,	.	.	.	.	.	.	.	.	.
=19	=19	=19	=19	=19	=19	=19	=19	=19	=19	=19	=19	=19	=19	=19	=19
4B-/	8C\	się	Ku-	bie-	chło-	niech	.	4g/	4e-\	ej,	.	.	.	.	.
.	8G\	za-	-ja-	-da	-pcy	ją	.	.	.	.	.	.	.	.	.
4A/	4F\	-le-	-wian-	go-	cho-	pie-	.	4c/	4c\	dy-	.	.	.	.	.
!	!LO:TUP:problem:klamra łukowa, numer u dołu	!	!	!	!	!	!	!	!	!	!	!	!	!	!
4F/	12E-\L	-cam,	-ka	-li,	-dzą,	-kło,	.	4c/	4A\	-lu	.	.	.	.	.
.	12D\	.	.	.	.	.	.	.	.	.	.	.	.	.	.
.	12C\J	.	.	.	.	.	.	.	.	.	.	.	.	.	.
=20	=20	=20	=20	=20	=20	=20	=20	=20	=20	=20	=20	=20	=20	=20	=20
4F/	8BB-\	Ka-	Czy	Ba-	Co	I-	.	4d/	4B-\	ej,	.	.	.	.	.
.	8BB-\	-żdej	nie	-ba	za-	-no	.	.	.	.	.	.	.	.	.
4E-/	4C\	ta-	mam	wo-	-gro-	mi	.	4c/	4G\	dy-	.	.	.	.	.
!	!LO:TUP:problem:klamra łukowa, numer u dołu	!	!	!	!	!	!	!	!	!	!	!	!	!	!
4G/	12BB-\L	-niec	żo-	-ła:	-dzę,	się	.	4e-/	4c\	-lu.	.	.	.	.	.
.	12AA\	.	.	.	.	.	.	.	.	.	.	.	.	.	.
.	12GG\J	.	.	.	.	.	.	.	.	.	.	.	.	.	.
=21	=21	=21	=21	=21	=21	=21	=21	=21	=21	=21	=21	=21	=21	=21	=21
!	!LO:TUP:problem:brak klamry, numer u góry	!	!	!	!	!	!	!	!	!	!	!	!	!	!
4A/	(>12FF\L	przy	-ny,	mą-	to	cie-	.	4e-/	4c\	dy-	.	.	.	.	.
.	12GG\J)	.	.	.	.	.	.	.	.	.	.	.	.	.	.
.	12AA\	o-	da	-ki	roz-	-lę	.	.	.	.	.	.	.	.	.
[2F/	4BB-\	-bie-	żo-	so-	-gro-	wście-	.	[2d/	[2B-\	-lu.	.	.	.	.	.
.	[4BB-\	-cam.	-ny.	-li.	-dzą.	-kło.	.	.	.	.	.	.	.	.	.
=22	=22	=22	=22	=22	=22	=22	=22	=22	=22	=22	=22	=22	=22	=22	=22
2.F/]	2.BB-\]	.	.	.	.	.	.	2.d/]	2.B-\]	.	.	.	.	.	.
!!LO:LB:g=original
=23	=23	=23	=23	=23	=23	=23	=23	=23	=23	=23	=23	=23	=23	=23	=23
!	!	!	!	!	!	!	!	!LO:TUP:problem:klamra łukowa, numer u góry	!	!	!	!	!	!	!
!	!	!	!	!	!	!	!LO:DY:b	!	!	!	!	!	!	!	!
4E-/	4BB-\	.	.	.	.	.	f	12F/L	4F\	Ej,	.	.	.	.	f
.	.	.	.	.	.	.	.	12G/	.	.	.	.	.	.	.
.	.	.	.	.	.	.	.	12A/J	.	.	.	.	.	.	.
4D/	4BB-\	.	.	.	.	.	.	(<8B-/L	4F\	dy-	.	.	.	.	.
.	.	.	.	.	.	.	.	8e-/J)	.	.	.	.	.	.	.
4F/	4BB-\	.	.	.	.	.	.	4d/	4B-\	-lu,	.	.	.	.	.
=24	=24	=24	=24	=24	=24	=24	=24	=24	=24	=24	=24	=24	=24	=24	=24
!	!	!	!	!	!	!	!	!LO:TUP:problem:klamra łukowa, numer u góry	!	!	!	!	!	!	!
4E-/	4BB-\	.	.	.	.	.	.	12F/L	4F\	ej,	.	.	.	.	.
.	.	.	.	.	.	.	.	12G/	.	.	.	.	.	.	.
.	.	.	.	.	.	.	.	12A/J	.	.	.	.	.	.	.
4D/	4BB-\	.	.	.	.	.	.	4B-/	4F\	dy-	.	.	.	.	.
4F/	4BB-\	.	.	.	.	.	.	4d/	4B-\	-lu	.	.	.	.	.
=25	=25	=25	=25	=25	=25	=25	=25	=25	=25	=25	=25	=25	=25	=25	=25
*	*	*	*	*	*	*	*	*	*	*	*^	*	*	*	*
*	*	*	*	*	*	*	*	*	*	*above	*	*	*	*	*	*
(<8En/L	4C\	.	.	.	.	.	.	8c/	4B-\	dy-	dy-	.	.	.	.	.
8C/J)	.	.	.	.	.	.	.	8e/	.	-lu	-lu	.	.	.	.	.
4D/	4FF\	.	.	.	.	.	.	4f/	4B-\	dy-	.	.	.	.	.	.
4r	4ryy	.	.	.	.	.	.	(<8d/L	4r	-lu	.	.	.	.	.	.
.	.	.	.	.	.	.	.	8G/J)	.	.	.	.	.	.	.	.
*	*	*	*	*	*	*	*	*	*	*	*v	*v	*	*	*	*
=26	=26	=26	=26	=26	=26	=26	=26	=26	=26	=26	=26	=26	=26	=26	=26
!	!	!	!	!	!	!	!	!LO:TUP:problem:klamra łukowa, numer u góry	!	!	!	!	!	!	!
4E-X/	4FF\	.	.	.	.	.	.	12F/L	4F\	dy-	.	.	.	.	.
.	.	.	.	.	.	.	.	12G/	.	.	.	.	.	.	.
.	.	.	.	.	.	.	.	12A/J	.	.	.	.	.	.	.
2D;/	2BB-;\	.	.	.	.	.	.	2B-;/	2F;\	-lu.	.	.	.	.	.
*v	*v	*	*	*	*	*	*	*	*	*	*	*	*	*	*
*	*	*	*	*	*	*	*v	*v	*	*	*	*	*	*
==	==	==	==	==	==	==	==	==	==	==	==	==	==
*-	*-	*-	*-	*-	*-	*-	*-	*-	*-	*-	*-	*-	*-
!!!system-decoration: {(s1,s2)}
!!!RDF**kern: > = above
!!!RDF**kern: < = below
!!!ENC: Krzysztof Stępień
!!!END: 2021-06-01
